symbols/web/elderly/materialsymbolsrounded/elderly_wght200gradN25fill1_48px.svg

<svg xmlns="http://www.w3.org/2000/svg" height="48" width="48"><path d="M27.6 10.1q-1.4 0-2.325-.95-.925-.95-.925-2.25 0-1.4.925-2.325.925-.925 2.275-.925 1.35 0 2.3.925.95.925.95 2.275 0 1.35-.95 2.3-.95.95-2.25.95Zm1.2 35.25q-.4 0-.6-.2-.2-.2-.2-.55V34.15q0-.2-.1-.45t-.25-.45L22 27.95l-1.4 7.4q-.05.3-.2.6-.15.3-.4.55l-6.1 7.7q-.2.25-.5.3-.3.05-.5-.15-.3-.2-.35-.5-.05-.3.15-.55l6-7.5q.1-.15.15-.325.05-.175.1-.325l.4-7.4q.05-2.4.775-5.825Q20.85 18.5 21.9 15.4l-6 2.75q-.35.15-.55.45-.2.3-.2.7v4.2q0 .35-.225.55-.225.2-.525.2-.35 0-.575-.2-.225-.2-.225-.55v-4.25q0-.8.45-1.45.45-.65 1.2-1l5.35-2.35q.85-.45 1.65-.85.8-.4 1.4-.5 1.05-.1 1.875.375t1.225 1.275l1.8 3.05q1.2 2.1 3.775 3.725t5.025 1.625q1.15 0 1.925.8.775.8.775 1.9V44.7q0 .25-.2.45t-.45.2q-.25 0-.45-.175t-.2-.475V25.85q0-.55-.425-.975-.425-.425-.975-.425t-.95.425q-.4.425-.4.975v.3q0 .3-.2.475t-.4.175q-.3 0-.5-.2t-.2-.45v-.65q0-.3.15-.625t.35-.525q-2.55-.6-4.8-2.325t-3.65-4.275q-.8 2.2-1.3 4.95t-.6 4.55l3.9 4.3q.4.4.575.875.175.475.175.975v11.2q0 .35-.225.55-.225.2-.475.2Z"/></svg>

<svg xmlns="http://www.w3.org/2000/svg" height="48" width="48"><path d="M27.6 10.1Q26.2 10.1 25.275 9.15Q24.35 8.2 24.35 6.9Q24.35 5.5 25.275 4.575Q26.2 3.65 27.55 3.65Q28.9 3.65 29.85 4.575Q30.8 5.5 30.8 6.85Q30.8 8.2 29.85 9.15Q28.9 10.1 27.6 10.1ZM28.8 45.35Q28.4 45.35 28.2 45.15Q28 44.95 28 44.6V34.15Q28 33.95 27.9 33.7Q27.8 33.45 27.65 33.25L22 27.95L20.6 35.35Q20.55 35.65 20.4 35.95Q20.25 36.25 20 36.5L13.9 44.2Q13.7 44.45 13.4 44.5Q13.1 44.55 12.9 44.35Q12.6 44.15 12.55 43.85Q12.5 43.55 12.7 43.3L18.7 35.8Q18.8 35.65 18.85 35.475Q18.9 35.3 18.95 35.15L19.35 27.75Q19.4 25.35 20.125 21.925Q20.85 18.5 21.9 15.4L15.9 18.15Q15.55 18.3 15.35 18.6Q15.15 18.9 15.15 19.3V23.5Q15.15 23.85 14.925 24.05Q14.7 24.25 14.4 24.25Q14.05 24.25 13.825 24.05Q13.6 23.85 13.6 23.5V19.25Q13.6 18.45 14.05 17.8Q14.5 17.15 15.25 16.8L20.6 14.45Q21.45 14 22.25 13.6Q23.05 13.2 23.65 13.1Q24.7 13 25.525 13.475Q26.35 13.95 26.75 14.75L28.55 17.8Q29.75 19.9 32.325 21.525Q34.9 23.15 37.35 23.15Q38.5 23.15 39.275 23.95Q40.05 24.75 40.05 25.85V44.7Q40.05 44.95 39.85 45.15Q39.65 45.35 39.4 45.35Q39.15 45.35 38.95 45.175Q38.75 45 38.75 44.7V25.85Q38.75 25.3 38.325 24.875Q37.9 24.45 37.35 24.45Q36.8 24.45 36.4 24.875Q36 25.3 36 25.85V26.15Q36 26.45 35.8 26.625Q35.6 26.8 35.4 26.8Q35.1 26.8 34.9 26.6Q34.7 26.4 34.7 26.15V25.5Q34.7 25.2 34.85 24.875Q35 24.55 35.2 24.35Q32.65 23.75 30.4 22.025Q28.15 20.3 26.75 17.75Q25.95 19.95 25.45 22.7Q24.95 25.45 24.85 27.25L28.75 31.55Q29.15 31.95 29.325 32.425Q29.5 32.9 29.5 33.4V44.6Q29.5 44.95 29.275 45.15Q29.05 45.35 28.8 45.35Z"/></svg>
